X: 28900
T: N'ar Smoke
R: polka
M: 2/4
K: Gmajor
|:g>a bg|fg a>e|de fg|a2 af|
g>a bg|fg a>e|de ef|1 g2 g>d:|2 g2 g>c||
|:Bc dB|cd ef/e/|de fg|a2 a>c|
Bc dB|cd ef/e/|de ef|1 g2 g>c:|2 g2 g>d||

